assets/icons/qvision/layers.svg

<svg xmlns="http://www.w3.org/2000/svg" height="24" viewBox="0 0 24 24" width="24"><path d="M0 0h24v24H0z" fill="none"/><path d="M11.99 18.54l-7.37-5.73L3 14.07l9 7 9-7-1.63-1.27-7.38 5.74zM12 16l7.36-5.73L21 9l-9-7-9 7 1.63 1.27L12 16z"/></svg>

<svg width="24" height="24" viewBox="0 0 24 24" fill="none" xmlns="http://www.w3.org/2000/svg">
<g clip-path="url(#clip0_147_5352)">
<path d="M11.99 18.54L4.62 12.81L3 14.07L12 21.07L21 14.07L19.37 12.8L11.99 18.54ZM12 16L19.36 10.27L21 9L12 2L3 9L4.63 10.27L12 16Z" fill="#323232"/>
</g>
<defs>
<clipPath id="clip0_147_5352">
<rect width="24" height="24" fill="white"/>
</clipPath>
</defs>
</svg>
